X: 278
T:Siege Of Bellisle. JaW.277
T:Monk's March,aka. JaW.277
T:Bellisle March,aka. JaW.277
M:C
L:1/8
Q:180
C:Bellisle March,Monk's March,aka
S:James Winder Ms, Lancashire, 1835-41
R:March
O:England
A:Wyresdale,Lancashire
N:Title almost illegible, but what looks like Belish could be Bellisle,
N:as in the Benjamin Cooke MS..CGP...
H:1/8
Z:vmp.Chris Partington, Aug 2004
K:G
D2|G2GB A2Ac|B2ge d2c2|B2 (3dcB A2 (3cBA |G2GG G2:|!
|:D2|dedc B2B2|cdcB {B}A4|dedc BcBc|ef (3dcB {B}A3D|!
G2G>B A2Ac|B2ge {e}d3c|B2 (3dcB A2 (3cAF|G2GG G2:|]
